airbyte-config/init/src/main/resources/icons/tempo.svg

<?xml version="1.0" encoding="UTF-8" standalone="no"?>
<svg:svg
   width="511.99985"
   height="512"
   viewBox="0 0 511.99985 512"
   fill="none"
   version="1.1"
   id="svg12"
   sodipodi:docname="tempo.svg"
   inkscape:version="1.2.1 (9c6d41e410, 2022-07-14, custom)"
   xmlns:inkscape="http://www.inkscape.org/namespaces/inkscape"
   xmlns:sodipodi="http://sodipodi.sourceforge.net/DTD/sodipodi-0.dtd"
   xmlns:svg="http://www.w3.org/2000/svg">
  <svg:defs
     id="defs16" />
  <sodipodi:namedview
     id="namedview14"
     pagecolor="#ffffff"
     bordercolor="#666666"
     borderopacity="1.0"
     inkscape:showpageshadow="2"
     inkscape:pageopacity="0.0"
     inkscape:pagecheckerboard="0"
     inkscape:deskcolor="#d1d1d1"
     showgrid="false"
     inkscape:zoom="0.7834873"
     inkscape:cx="866"
     inkscape:cy="256.54532"
     inkscape:window-width="3840"
     inkscape:window-height="2083"
     inkscape:window-x="0"
     inkscape:window-y="40"
     inkscape:window-maximized="1"
     inkscape:current-layer="svg12" />
  <svg:path
     d="m 374.5,198.79999 -33.8,-33.8 c -2.5,-2.5 -6.6,-2.5 -9.1,0 l -103.6,103.6 -41.3,-41.3 c -2.5,-2.5 -6.6,-2.5 -9.1,0 l -38,38 c -2.5,2.5 -2.5,6.6 0,9.1 l 79.6,79.6 c 1.3,1.3 2.9,1.9 4.6,1.9 1.7,0 3.3,-0.6 4.6,-1.9 l 146.1,-146.1 c 2.5,-2.5 2.5,-6.6 0,-9.1 z"
     fill="#004789"
     id="path4" />
  <svg:path
     d="m 152.017,436.10299 c -99.467898,-57.428 -133.548198,-184.617 -76.120198,-284.086 4.9001,-8.487 10.3082,-16.498 16.1635,-24.017 h -57.7134 c -0.0041,0.007 -0.0083,0.014 -0.0124,0.021 -70.6806,122.423 -28.7356104,278.964 93.686498,349.644 30.011,17.327 62.072,27.886 94.416,32.15 l -32.706,-56.648 c -12.869,-4.341 -25.5,-10.012 -37.714,-17.064 z"
     fill="#00aeef"
     id="path6" />
  <svg:path
     d="m 477.665,383.97899 c -47.361,82.032 -133.274,127.93 -221.64,128.021 l -28.861,-49.988 c 81.414,11.367 165.309,-26.46 208.939,-102.029 26.371,-45.677 33.446,-97.199 23.754,-145.126 l 32.7,-56.639 c 29.259,70.928 26.437,154.177 -14.892,225.761 z"
     fill="#f5871f"
     id="path8" />
  <svg:path
     d="M 53.039402,99.999991 H 118.388 c 65.144,-57.4795 162.2,-69.9416 241.595,-24.1032 41.798,24.132199 72.05,60.583199 88.818,102.120199 l 28.889,-50.038 C 455.975,90.294291 424.354,57.644991 383.979,34.334491 271.425,-30.648209 130.033,-0.43196961 53.039402,99.999991 Z"
     fill="#00ac65"
     id="path10" />
  <style
     type="text/css"
     id="igtranslator-color" />
</svg:svg>

<svg width="1732" height="512" viewBox="0 0 1732 512" fill="none" xmlns="http://www.w3.org/2000/svg">
<path fill-rule="evenodd" clip-rule="evenodd" d="M734.771 174.998V378.784H681.137V174.998H608V128H807.533V174.998H734.771ZM963.86 358.612C945.861 375.153 917.362 383.799 889.238 383.799C834.116 383.799 792.492 346.582 792.492 288.314C792.492 235.684 831.116 193.204 886.239 193.204C940.236 193.204 976.985 233.804 976.985 293.201V303.727H842.365C845.365 326.658 863.739 345.831 894.488 345.831C909.863 345.831 931.237 339.064 942.861 327.786L963.86 358.612ZM841.624 270.445H930.862C929.737 253.195 917.738 230.32 886.243 230.32C856.622 230.32 843.873 252.445 841.624 270.445ZM1059.9 256.28V378.784H1012.08V196.724H1059.9V220.471C1067.43 209.54 1091.52 192.201 1119.39 192.201C1146.12 192.201 1163.06 204.639 1169.84 225.371C1180.38 208.786 1204.48 192.201 1232.34 192.201C1265.85 192.201 1285.81 209.917 1285.81 247.233V378.784H1237.61V263.818C1237.61 246.856 1230.08 234.794 1210.5 234.794C1193.56 234.794 1179.63 246.102 1172.85 255.903V378.784H1124.66V263.818C1124.66 246.856 1117.13 234.794 1097.55 234.794C1080.98 234.794 1067.05 246.102 1059.9 256.28ZM1379.75 355.325V448H1331.93V196.721H1379.75V219.702C1393.68 201.996 1413.64 192.201 1435.85 192.201C1482.54 192.201 1516.42 226.86 1516.42 287.513C1516.42 348.167 1482.54 383.203 1435.85 383.203C1414.39 383.203 1394.43 374.161 1379.75 355.325ZM1467.29 287.813C1467.29 256.701 1450.8 235.335 1426.23 235.335C1414.91 235.335 1401.6 241.395 1393.51 249.99C1385.36 258.505 1380.06 272.33 1380.06 287.938C1380.06 300.974 1383.76 312.767 1389.72 321.26C1390.33 322.133 1390.98 322.991 1391.68 323.835C1392.63 324.976 1393.62 326.042 1394.65 327.026C1402.76 334.918 1415.43 340.665 1426.23 340.665C1450.8 340.665 1467.29 319.299 1467.29 287.813ZM1635.55 383.799C1695.83 383.799 1732 340.192 1732 288.314C1732 236.811 1695.83 193.204 1635.55 193.204C1575.65 193.204 1539.49 236.811 1539.49 288.314C1539.49 340.192 1575.65 383.799 1635.55 383.799ZM1636.06 340.665C1606.23 340.665 1589.62 316.3 1589.62 287.813C1589.62 259.7 1606.23 235.335 1636.06 235.335C1665.88 235.335 1682.87 259.7 1682.87 287.813C1682.87 316.3 1665.88 340.665 1636.06 340.665Z" fill="#004789"/>
<path d="M374.5 198.8L340.7 165C338.2 162.5 334.1 162.5 331.6 165L228 268.6L186.7 227.3C184.2 224.8 180.1 224.8 177.6 227.3L139.6 265.3C137.1 267.8 137.1 271.9 139.6 274.4L219.2 354C220.5 355.3 222.1 355.9 223.8 355.9C225.5 355.9 227.1 355.3 228.4 354L374.5 207.9C377 205.4 377 201.3 374.5 198.8Z" fill="#004789"/>
<path d="M152.017 436.103C52.5491 378.675 18.4688 251.486 75.8968 152.017C80.7969 143.53 86.205 135.519 92.0603 128H34.3469C34.3428 128.007 34.3386 128.014 34.3345 128.021C-36.3461 250.444 5.59889 406.985 128.021 477.665C158.032 494.992 190.093 505.551 222.437 509.815L189.731 453.167C176.862 448.826 164.231 443.155 152.017 436.103Z" fill="#00AEEF"/>
<path d="M477.665 383.979C430.304 466.011 344.391 511.909 256.025 512L227.164 462.012C308.578 473.379 392.473 435.552 436.103 359.983C462.474 314.306 469.549 262.784 459.857 214.857L492.557 158.218C521.816 229.146 518.994 312.395 477.665 383.979Z" fill="#F5871F"/>
<path d="M53.0394 100H118.388C183.532 42.5205 280.588 30.0584 359.983 75.8968C401.781 100.029 432.033 136.48 448.801 178.017L477.69 127.979C455.975 90.2943 424.354 57.645 383.979 34.3345C271.425 -30.6482 130.033 -0.431961 53.0394 100Z" fill="#00AC65"/>
<style xmlns="" type="text/css" id="igtranslator-color"/></svg>
